X:5008
T:Arthur John Donnelly
M:6/8
L:1/8
Q:180
C:Aidan Crossey
R:Jig
K:D
|:AFD DEF|ABd BAG|B2G EFG|B2G BdB|
AFD DEF|ABd BAG|B2G EFG|FGE D3:||
|:def faf|faf fed|B2G EFG|B2G BdB |
def faf|faf fed|B2G EFG|FGE D3:||
